X:5
T:5. Habervogl
K:F
M:3/4
L:1/8
C2 |: A2 AAAA | A2 G2 F2 | \
M:4/4
L:1/4
(FD) D2 | (FD) D2 | \
M:3/4
L:1/8
G2 GGGG | G2 F2 D2 | \
M:4/4
L:1/4
(D C) C2 | (D C) C2 |
M:3/4
L:1/8
F2 FFFF | F2 E2 D2 | \
M:4/4
L:1/4
EE/F/ G2 | EE/F/ G2 | \
M:3/4
L:1/8
c2 cccc | c2 B2 E2 |1 F2 z2 C2 :|2 F2 z2 C2 ||
|: D2 (C=B,CF) | \
M:4/4
L:1/4
(EB) (EB) | \
M:3/4
L:1/8
D2 (C=B,CE) | \
M:4/4
L:1/4
(FA) (FA) | \
M:3/4
L:1/8
D2 (C=B,CF) | \
M:4/4
L:1/4
(EB) (EB) | \
M:3/4
L:1/8
C2 (EG)BE |1 F2 z2 C2 :|2 F2 z2 F2 ||
K:Bb
|: d2 dddd | d2 c2 B2 | \
M:4/4
L:1/4
(BG) G2 | (BG) G2 | \
M:3/4
L:1/8
c2 cccc | c2 B2 G2 | \
M:4/4
L:1/4
(GF) F2 | (GF) F2 |
M:3/4
L:1/8
B2 BBBB | B2 A2 G2 | \
M:4/4
L:1/4
AA/B/ c2 | AA/B/ c2 | \
M:3/4
L:1/8
f2 ffff | f2 e2 A2 |1 B2 z2 F2 :|2 B2 z2 F2 ||
|:G2 (F=EFB) | \
M:4/4
L:1/4
(Ae) (Ae) | \
M:3/4
L:1/8
G2 (F=EFA) | \
M:4/4
L:1/4
(Bd) (Bd) | \
M:3/4
L:1/8
G2 (F=EFB) | \
M:4/4
L:1/4
(Ae) (Ae) | \
M:3/4
L:1/8
F2 (Ac)eA |1 B2 z2 F2 :|2 B2 z2 |]

